X:1
T:That Old, Old Story Is True
T:That Old, Old Story Is True 
T:Edward Othello Excell
T:D. B. Watkins, 1886
T:Public Domain Courtesy of the Cyber Hymnal™
T:Public Domain Courtesy of the Cyber Hymnal™
T:Public Domain Courtesy of the Cyber Hymnal™
C:Edward Othello Excell
Z:Public Domain
Z:Courtesy of the Cyber Hymnal™
%%score ( 1 2 ) ( 3 4 )
L:1/8
Q:1/4=83
M:6/8
K:G
V:1 treble 
V:2 treble 
V:3 bass 
V:4 bass 
V:1
 ([GB]/[Ac]/) | [Bd]>G[GA] [GB]>[Gc][GB] | [EA]>E[EA] ([Cc][DB])[EA] | %3
w: 1.~There’s won-|der- ful sto- ry I’ve heard|long a- go, ’Tis * called|
w: 2.~They me|of a Be- ing so love-|ly and pure, That * came|
w: 3.~He rose|and as- cend- ed to Heav-|en, we’re told, Tri- * umph-|
w: 4.~Oh, won-|der- ful sto- ry I love|to re- peat, Of * peace|
 [DG]>[DF][DG] ([DA]>[DG])[DA] | [DB]3- [DB]2 ([GB]/[Ac]/) | [Bd]>G[GA] [GB]>[Gc][GB] | %6
w: “The sweet sto- ry old”; I|~ * hear so|oft- en, wher- ev- er I|
w: to the earth ~ dwell, To|~ * seek His|lost ones, and make them se-|
w: ant o’er death ~ hell; He’s|pre- * par- a|place in that ci- ty of|
w: and good- will ~ men; There’s|no * sto- to|me that is half ~ so|
 ([EA]>E)[EA] ([Cc][DB])[EA] | ([DG]>[DF])[DG] [EA]>!fermata![DB][DA] | [DG]3- [DG]2 ([DB]/[DB]/) | %9
w: go, That same ~ * old|sto- was told; And I’ve thought|it * was that|
w: cure, From death and * the|pow- of hell; That ~ He|was * des- and|
w: gold, Where loved ones * for-|ev- may dwell. Where our kin-|dred * we’ll and|
w: sweet, As~I hear it * a-|gain a- gain. He in- vites|you * to He|
 [EB]>[EA][EG] [^DF]>E[DF] | [FA]>[EG][^DF] E2 E/E/ | [^CA]>[CA][CE] [CG]>[CF][CE] | %12
w: so oft- en they’d tell That|~ sto- ry as if it|new; But I’ve found out the|
w: with thorns He was crowned, On|the cross was ex- tend- ed|view; But ~ oh, what sweet|
w: we’ll nev- er more part, And|~ oh, while I tell it|you, It is peace to my|
w: will free- ly re- ceive, And|this mes- sage He send- eth|you, “There’s a man- sion in|
 D3- !fermata!D2 ([GB]/[Ac]/) | [Bd]>G[GA] [GB]>[Gc][GB] | [EA]>E[EA] ([Cc][DB])[EA] | %15
w: rea- * son loved|it so well, That old, old|sto- ry is true. * That|
w: peace * in heart|since I’ve found That old, old|sto- ry is true. * That|
w: soul, * it joy|to my heart, That old, old|sto- ry is true. * That|
w: glo- * ry all|who be- lieve,” That old, old|sto- ry is true. * That|
 (GF)[DG] [DA]>!fermata![DB][DA] | [DG]3- [DG]2 ||"^Refrain" [GB] | [Fd]2 [FA] [FA]>[GB][Ac] | %19
w: old, * old sto- ry is|true, *|That|old, old sto- ry is|
w: old, * old sto- ry is|true, *|That|old, old sto- ry is|
w: old, * old sto- ry is|true, *|That|old, old sto- ry is|
w: old, * old sto- ry is|true, *|That|old, old sto- ry is|
 [GB]3- [GB]2 [DB] | [^CA]2 [CE] [CG]>[CF][CE] | D3- !fermata!D2 ([GB]/[Ac]/) | %22
w: true; * But|I’ve found out the rea-|son * they it|
w: true; * But|~ oh, what sweet peace|in * my since|
w: true; * It|is peace to my soul,|it * is to|
w: true; * “There’s|a man- sion in glo-|ry * for who|
 [Bd]>G[GA] [GB]>[Gc][GB] | [EA]>E[EA] ([Cc][DB])[EA] | %24
w: so well, That old, old sto-|ry is true. * * *|
w: I’ve found That old, old sto-|ry is true. * * *|
w: my heart, That old, old sto-|ry is true. * * *|
w: be- lieve,” That old, old sto-|ry is true. * * *|
 !fermata![DG]2 !fermata![Gd] [DF]>[DE][DF] | [DG]3- [DG]2 |] %26
w: ||
w: ||
w: ||
w: ||
V:2
 x | x3/2 G/ x4 | x3/2 E/ x4 | x6 | x6 | x3/2 G/ x4 | x3/2 E/ x4 | x6 | x6 | x9/2 E/ x | %10
w: ||||||||||
w: ||||||||||
w: ||||||||||
w: ||||||||||
 x3 E2 (E/E/) | x6 | D3- D2 x | x3/2 G/ x4 | x3/2 E/ x4 | D2 x4 | x5 || x | x6 | x6 | x6 | %21
w: * * were|||||||||||
w: * * to|||||||||||
w: * * to|||||||||||
w: * * to|||||||||||
 D3- D2 x | x3/2 G/ x4 | x3/2 E/ x4 | x6 | x5 |] %26
w: |||||
w: |||||
w: |||||
w: |||||
V:3
 ([G,D]/[G,D]/) | [G,D]>[G,B,][G,C] [G,D]>[G,E][G,D] | [C,C]>[C,C][C,C] (ED)[C,C] | %3
 [D,B,]>[D,A,][D,B,] ([D,C]>[D,B,])[D,F,] | [G,,G,]3- [G,,G,]2 ([G,D]/[G,D]/) | %5
 [G,D]>[G,B,][G,C] [G,D]>[G,E][G,D] | ([C,C]>[C,C])[C,C] ([C,E][C,D])[C,C] | %7
 ([D,B,]>[D,A,])[D,B,] [D,C]>!fermata![D,D][D,C] | [G,B,]3- [G,B,]2 G,/G,/ | %9
 [E,G,]>[E,A,][E,B,] [B,,B,]>[B,,G,][B,,A,] | [B,,B,]>[B,,B,][B,,A,] [E,G,]2 ([E,G,]/[E,G,]/) | %11
 [A,,A,]>[A,,A,][A,,A,] [A,,A,]>[A,,A,][A,,G,] | (z3/2 F,/A, [D,F,C]2) [G,D]/[G,D]/ | %13
 [G,D]>[G,B,][G,C] [G,D]>[G,E][G,D] | [C,C]>[C,C][C,C] (ED)[C,C] | %15
 (B,A,)[D,B,] [D,C]>!fermata![D,D][D,C] | [G,B,]3- [G,B,]2 || [G,D] | %18
 [D,D]2 [D,D] [D,D]>[D,D][D,D] | [G,D]3- [G,D]2 [G,,G,] | [A,,E,]2 [A,,A,] [A,,A,]>[A,,A,][A,,G,] | %21
 (z3/2 F,/A, !fermata![D,F,C]2) ([G,D]/[G,D]/) | [G,D]>[G,B,][G,C] [G,D]>[G,E][G,D] | %23
 [C,C]>[C,C][C,C] (ED)[C,C] | !fermata![D,B,]2 !fermata![D,B,] [D,C]>[D,C][D,C] | %25
 [G,,G,B,]3- [G,,G,B,]2 |] %26
V:4
 x | x6 | x3 C,2 x | x6 | x6 | x6 | x6 | x6 | x5 (G,/G,/) | x6 | x6 | x6 | [D,F,]3- x3 | x6 | %14
 x3 C,2 x | D,2 x4 | x5 || x | x6 | G,,>B,,D, x3 | x6 | [D,F,]3- x3 | x6 | x3 C,2 x | x6 | x5 |] %26

